X: 32649
T: Plough And The Stars, The
R: reel
M: 4/4
K: Fmajor
|:FDCD FGAc|fg (3agf gfdc|Ac (3ccc dAcA|fdcA ~B2 AG|
FDCD FGAc|fg (3agf gfdc|Ac (3ccc dAcA|1 GFGA FBAG:|2 GFGA FGAc||
|:~f3 a ~g3 a|fgaf gfdc|Ac ~c2 d2 cd|fdcA (3BcB AG|
FDCD FGAc|fgaf gfdc|Ac ~c2 dAcA|GFGA FGAc:|

